picto/sitting-prohibited-left-framed.svg

<svg class="color-immutable" width="30" height="30" viewBox="0 0 30 30" fill="none" xmlns="http://www.w3.org/2000/svg"><path d="M30 0H0V30H30V0Z" fill="#2D327D"/><path d="M25.5 3C26.325 3 27 3.675 27 4.5V25.5C27 26.325 26.325 27 25.5 27H4.5C3.675 27 3 26.325 3 25.5V4.5C3 3.675 3.675 3 4.5 3H25.5ZM25.5 2.625H4.5C3.46613 2.625 2.625 3.46613 2.625 4.5V25.5C2.625 26.5339 3.46613 27.375 4.5 27.375H25.5C26.5339 27.375 27.375 26.5339 27.375 25.5V4.5C27.375 3.46613 26.5339 2.625 25.5 2.625Z" fill="white"/><path d="M16.5 8.625C16.5 9.45345 15.8284 10.125 15 10.125C14.1716 10.125 13.5 9.45345 13.5 8.625C13.5 7.79655 14.1716 7.125 15 7.125C15.8284 7.125 16.5 7.79655 16.5 8.625Z" fill="white"/><path d="M16.5 15.4229V12.3517C16.5 11.4325 15.7549 10.6875 14.8358 10.6875C14.2413 10.6875 13.6918 11.0047 13.3946 11.5195L13.1025 12.0254L16.5 15.4229Z" fill="white"/><path d="M12.3261 13.3703L11.0169 15.6379C10.8616 15.9069 10.9538 16.2509 11.2228 16.4063C11.4918 16.5616 11.8358 16.4694 11.9912 16.2004L13.1251 14.2364V16.875H11.1687C10.6328 16.875 10.1376 17.1609 9.86971 17.625L7.54554 21.6505C7.36434 21.9644 7.47189 22.3657 7.78576 22.547C8.09964 22.7282 8.50096 22.6206 8.68224 22.3067L10.9522 18.375H15.7501C16.1643 18.375 16.5001 18.0392 16.5001 17.625V17.5443L12.3261 13.3703Z" fill="white"/><path d="M19.5 18.4229V15.75H23.625C23.8321 15.75 24 15.5821 24 15.375C24 15.1679 23.8321 15 23.625 15H19.125C18.9179 15 18.75 15.1679 18.75 15.375V17.6729L19.5 18.4229Z" fill="white"/><path d="M18.0807 19.125H12.75C12.5429 19.125 12.375 19.2929 12.375 19.5V23.25H6.375C6.16793 23.25 6 23.4179 6 23.625C6 23.8321 6.16793 24 6.375 24H12.75C12.9571 24 13.125 23.8321 13.125 23.625V19.875H18.8307L18.0807 19.125Z" fill="white"/><path d="M6.70811 5.63115L5.64746 6.6918L22.9894 24.0337L24.0501 22.9731L6.70811 5.63115Z" fill="#EB0000"/></svg>

<svg class="color-immutable" width="30" height="30" viewBox="0 0 30 30" fill="none" xmlns="http://www.w3.org/2000/svg"><g clip-path="url(#a)"><path d="M30 0H0v30h30V0Z" fill="#2D327D"/><path d="M25.5 3c.825 0 1.5.675 1.5 1.5v21c0 .825-.675 1.5-1.5 1.5h-21c-.825 0-1.5-.675-1.5-1.5v-21C3 3.675 3.675 3 4.5 3h21Zm0-.375h-21A1.877 1.877 0 0 0 2.625 4.5v21c0 1.034.841 1.875 1.875 1.875h21a1.877 1.877 0 0 0 1.875-1.875v-21A1.877 1.877 0 0 0 25.5 2.625Z" fill="#fff"/><path d="M16.5 8.625a1.5 1.5 0 1 1-3 0 1.5 1.5 0 0 1 3 0ZM16.5 15.423v-3.071a1.664 1.664 0 0 0-3.105-.832l-.293.505 3.398 3.398ZM12.326 13.37l-1.31 2.268a.563.563 0 0 0 .975.562l1.134-1.964v2.639H11.17a1.5 1.5 0 0 0-1.3.75l-2.323 4.026a.656.656 0 0 0 1.136.656l2.27-3.932h4.798a.75.75 0 0 0 .75-.75v-.08l-4.174-4.175ZM19.5 18.423V15.75h4.125a.375.375 0 0 0 0-.75h-4.5a.375.375 0 0 0-.375.375v2.298l.75.75Z" fill="#fff"/><path d="M18.08 19.125h-5.33a.375.375 0 0 0-.375.375v3.75h-6a.375.375 0 0 0 0 .75h6.375a.375.375 0 0 0 .375-.375v-3.75h5.706l-.75-.75Z" fill="#fff"/><path d="m6.708 5.631-1.06 1.06 17.341 17.343 1.061-1.06L6.708 5.63Z" fill="#EB0000"/></g><defs><clipPath id="a"><path fill="#fff" d="M0 0h30v30H0z"/></clipPath></defs></svg>
